icons/file-open.svg

<?xml version="1.0" encoding="UTF-8"?><svg xmlns="http://www.w3.org/2000/svg" viewBox="0 0 50 50"><g id="uuid-d174d35e-5011-46c9-b61c-daef7df3d971"><path d="M46.25,39.21l2.41-25.1c.01-.14-.03-.28-.13-.38-.09-.1-.23-.16-.37-.16h-1.91v-2.44c0-.28-.22-.5-.5-.5H17.85l-.87-2.32c-.07-.2-.26-.32-.47-.32H1.59c-.28,0-.5,.22-.5,.5v30.67l-.22,2.31c-.01,.14,.03,.28,.13,.38,.09,.1,.23,.16,.37,.16H45.52c.26,0,.47-.2,.5-.45l.15-1.52c.05-.08,.08-.16,.08-.26v-.58ZM16.17,8.98l.87,2.32c.07,.2,.26,.32,.47,.32h27.74v1.94H19.91c-.19,0-.36,.11-.45,.27l-1.08,2.13H3.77c-.26,0-.47,.2-.5,.45l-1.18,12.32V8.98h14.08ZM1.92,41.02l2.31-24.05h14.47c.19,0,.36-.11,.45-.27l1.08-2.13h27.39l-2.54,26.46H1.92Z"/></g><g id="uuid-d86678dc-b15c-4d77-8e09-8bf79b02b770"><text transform="translate(-.28 55.01)" font-family="Roboto-Regular, Roboto" font-size="6"><tspan x="0" y="0">file-open</tspan></text></g></svg>

<svg xmlns="http://www.w3.org/2000/svg" viewBox="0 0 50 50"><g id="a529f374-d480-4b82-9457-b48ee56db3eb" data-name="ICONS"><path d="M46.25,39.21l2.41-25.1a.56.56,0,0,0-.13-.39.52.52,0,0,0-.37-.16H46.25V11.12a.51.51,0,0,0-.5-.5H17.85L17,8.31A.5.5,0,0,0,16.51,8H1.59a.5.5,0,0,0-.5.5V39.16L.87,41.47a.48.48,0,0,0,.13.38.48.48,0,0,0,.37.17H45.52a.5.5,0,0,0,.5-.46l.15-1.51a.57.57,0,0,0,.08-.26ZM16.17,9,17,11.3a.5.5,0,0,0,.47.32H45.25v1.94H19.91a.51.51,0,0,0-.44.27L18.39,16H3.77a.5.5,0,0,0-.5.45L2.09,28.74V9ZM1.92,41,4.23,17H18.7a.5.5,0,0,0,.44-.28l1.08-2.13H47.61L45.07,41Z"/></g><g id="b1510c37-6f39-429c-8915-a115af77a69b" data-name="LABELS"><text transform="translate(-0.28 55.01)" font-size="6" font-family="Roboto-Regular, Roboto">file-open</text></g></svg>
